Sources/FrostedUI/Resources/Icons.xcassets/documentPlus24.imageset/document-plus-24.svg

<svg width="24" height="24" viewBox="0 0 24 24" fill="none" xmlns="http://www.w3.org/2000/svg" data-fui-icon="true">
  <path
    d="M20.25 16.5C20.6642 16.5 21 16.8358 21 17.25V19.5H23.25C23.6642 19.5 24 19.8358 24 20.25C24 20.6642 23.6642 21 23.25 21H21V23.25C21 23.6642 20.6642 24 20.25 24C19.8358 24 19.5 23.6642 19.5 23.25V21H17.25C16.8358 21 16.5 20.6642 16.5 20.25C16.5 19.8358 16.8358 19.5 17.25 19.5H19.5V17.25C19.5 16.8358 19.8358 16.5 20.25 16.5ZM18.1875 2.125C20.2592 2.125 21.9374 3.80668 21.9375 5.87695V13.5576C21.9373 13.9717 21.6016 14.3076 21.1875 14.3076C20.7734 14.3076 20.4377 13.9717 20.4375 13.5576V5.87695C20.4374 4.6337 19.4294 3.625 18.1875 3.625H5.875C4.63236 3.625 3.625 4.63236 3.625 5.875V18.1875C3.625 19.4302 4.63238 20.4375 5.875 20.4375H13.5576C13.9717 20.4377 14.3076 20.7734 14.3076 21.1875C14.3076 21.6016 13.9717 21.9373 13.5576 21.9375H5.875C3.80391 21.9375 2.125 20.2585 2.125 18.1875V5.875C2.125 3.80393 3.80393 2.125 5.875 2.125H18.1875ZM12 15.25C12.4142 15.25 12.75 15.5858 12.75 16C12.75 16.4142 12.4142 16.75 12 16.75H7C6.58579 16.75 6.25 16.4142 6.25 16C6.25 15.5858 6.58579 15.25 7 15.25H12ZM17 11.25C17.4142 11.25 17.75 11.5858 17.75 12C17.75 12.4142 17.4142 12.75 17 12.75H7C6.58579 12.75 6.25 12.4142 6.25 12C6.25 11.5858 6.58579 11.25 7 11.25H17ZM17 7.25C17.4142 7.25 17.75 7.58579 17.75 8C17.75 8.41421 17.4142 8.75 17 8.75H7C6.58579 8.75 6.25 8.41421 6.25 8C6.25 7.58579 6.58579 7.25 7 7.25H17Z"
    fill="currentColor"
  />
</svg>

<svg xmlns="http://www.w3.org/2000/svg" width="24" height="24" fill="none" data-fui-icon="true" viewBox="0 0 24 24"><path fill="currentColor" d="M20.25 16.5a.75.75 0 0 1 .75.75v2.25h2.25a.75.75 0 0 1 0 1.5H21v2.25a.75.75 0 0 1-1.5 0V21h-2.25a.75.75 0 0 1 0-1.5h2.25v-2.25a.75.75 0 0 1 .75-.75M18.188 2.125a3.75 3.75 0 0 1 3.75 3.752v7.68a.75.75 0 0 1-1.5 0v-7.68a2.25 2.25 0 0 0-2.25-2.252H5.874a2.25 2.25 0 0 0-2.25 2.25v12.313a2.25 2.25 0 0 0 2.25 2.25h7.683a.75.75 0 0 1 0 1.5H5.875a3.75 3.75 0 0 1-3.75-3.75V5.874a3.75 3.75 0 0 1 3.75-3.75zM12 15.25a.75.75 0 0 1 0 1.5H7a.75.75 0 0 1 0-1.5zm5-4a.75.75 0 0 1 0 1.5H7a.75.75 0 0 1 0-1.5zm0-4a.75.75 0 0 1 0 1.5H7a.75.75 0 0 1 0-1.5z"/></svg>
